X:1
T:A Bruxa
R:walzer
Z:abc transcription Simon Wascher
M:3/4
L:1/4
K:Gm
d/B/ A/G/ A/B/ | dBG/c/ | B/A/EB | A>GA |\
d/B/ A/G/ A/B/ | dBG/c/ | B/A/EA/E/ | G3 :|
|:\
G/A/Bc | d>cd | e/d/cf | d>cd |\
G/A/Bc | d>cd | e/d/cf/c/ | d3 :|
|:\
f/e/ d/c/ d/e/ | dBG | d/c/ B/A/ B/c/ | BGE |\
c/B/ A/G/ A/B/ | AED | E/D/E^F |1 GBd :|\
                               [2 G3 ||
